public/favicon.svg

<?xml version="1.0" encoding="UTF-8"?>
<!-- Generator: visioncortex VTracer -->
<svg id="svg" version="1.1" xmlns="http://www.w3.org/2000/svg" style="display: block;" viewBox="0 0 512 512"><path d="M0 0 C168.96 0 337.92 0 512 0 C512 168.96 512 337.92 512 512 C343.04 512 174.08 512 0 512 C0 343.04 0 174.08 0 0 Z " transform="translate(0,0)" style="fill: #111420;"/><path d="M0 0 C1.57201172 0.01353516 1.57201172 0.01353516 3.17578125 0.02734375 C19.50058888 0.38833458 34.06217504 5.30903726 47.48046875 14.640625 C62.19565888 26.25040259 71.21959223 40.95847083 77.3125 58.4375 C83.76988968 78.76818783 83.91998392 104.67439638 78.00585938 125.26464844 C73.20348321 140.3143484 65.37733731 153.14646499 54.3125 164.4375 C53.64863281 165.13746094 52.98476562 165.83742188 52.30078125 166.55859375 C43.11089573 175.53842474 30.91183384 180.79817231 18.4519043 183.40527344 C2.15659783 186.29590102 -14.13843851 185.36203022 -29.57421875 179.3046875 C-38.31753373 175.26107169 -44.92332662 169.20167338 -51.6875 162.4375 C-52.0175 192.7975 -52.3475 223.1575 -52.6875 254.4375 C-67.8675 254.4375 -83.0475 254.4375 -98.6875 254.4375 C-98.6875 172.5975 -98.6875 90.7575 -98.6875 6.4375 C-83.5075 6.4375 -68.3275 6.4375 -52.6875 6.4375 C-52.6875 12.3775 -52.6875 18.3175 -52.6875 24.4375 C-52.0275 24.4375 -51.3675 24.4375 -50.6875 24.4375 C-50.46578125 23.87675781 -50.2440625 23.31601563 -50.015625 22.73828125 C-45.20547605 14.40540556 -34.74079458 9.02379199 -26.40234375 4.91015625 C-17.58423953 1.41444091 -9.47932654 -0.09874298 0 0 Z " transform="translate(132.6875,162.5625)" style="fill: #7353D5;"/><path d="M0 0 C14.43009067 7.91622837 26.6506974 18.64538699 34.87744141 32.97363281 C38.92401911 40.87224121 40.50244141 46.10697719 40.50244141 55.14550781 C24.66244141 55.14550781 8.82244141 55.14550781 -7.49755859 55.14550781 C-9.47755859 52.17550781 -11.45755859 49.20550781 -13.49755859 46.14550781 C-19.49223363 40.25982686 -25.6647994 37.14146762 -33.92333984 35.50097656 C-43.71107305 34.14940794 -52.5105981 34.88520957 -61.49755859 39.14550781 C-69.16350119 43.76181646 -74.95330992 50.14928891 -79.00537109 58.10644531 C-81.4736063 63.70581317 -83.33602224 68.9855881 -83.49755859 75.14550781 C-83.54783203 76.17160156 -83.59810547 77.19769531 -83.64990234 78.25488281 C-84.00354431 90.98599372 -81.93967541 102.12660695 -75.51708984 113.22753906 C-71.05207059 119.67893051 -65.39794741 124.14595497 -58.32177734 127.45410156 C-49.74327182 130.70548374 -38.77389987 130.14698257 -29.89599609 128.46191406 C-23.54700043 126.4850304 -17.38900672 123.72761534 -12.49755859 119.14550781 C-9.72971062 115.3499357 -7.59294584 111.33628231 -5.49755859 107.14550781 C9.68244141 107.14550781 24.86244141 107.14550781 40.50244141 107.14550781 C40.50244141 116.8001017 38.01530081 125.62778974 33.04541016 133.96191406 C29.92516773 138.37764955 26.23625719 142.24878558 22.50244141 146.14550781 C21.68839844 147.05429687 21.68839844 147.05429687 20.85791016 147.98144531 C9.2275277 160.52459196 -6.48802383 168.37987213 -22.87255859 172.63769531 C-40.23812383 175.99710525 -59.28683539 175.40835979 -75.81005859 168.83300781 C-77.71682284 167.96068247 -79.61322082 167.06527548 -81.49755859 166.14550781 C-82.86460937 165.51708984 -82.86460937 165.51708984 -84.25927734 164.87597656 C-92.20656641 160.94201179 -98.30210963 155.35617367 -104.49755859 149.14550781 C-105.31482422 148.33984375 -106.13208984 147.53417969 -106.97412109 146.70410156 C-118.96301883 134.20021681 -125.80459418 118.02022894 -128.97631836 101.14916992 C-132.55279562 79.67928827 -130.75650397 59.23675334 -121.63378906 39.25341797 C-113.81321696 22.8538399 -102.70804366 10.33841212 -87.02099609 1.03222656 C-81.02842914 -2.17665352 -74.9196706 -4.64495526 -68.49755859 -6.85449219 C-67.53205078 -7.19609375 -66.56654297 -7.53769531 -65.57177734 -7.88964844 C-43.98233793 -14.1707438 -19.64368747 -10.24679273 0 0 Z " transform="translate(351.49755859375,172.8544921875)" style="fill: #7253D5;"/><path d="M0 0 C8.4929919 4.58049001 14.02731314 11.40794034 18.5234375 19.80859375 C22.04247229 28.17963105 23.34093666 35.67221166 23.25 44.75 C23.24242676 45.80848145 23.23485352 46.86696289 23.22705078 47.95751953 C23.0673211 55.5207782 22.30185705 62.05833034 18.8125 68.875 C18.36519531 69.76058594 17.91789062 70.64617187 17.45703125 71.55859375 C12.72096918 80.10382103 6.82147095 85.56402438 -1.46484375 90.61328125 C-10.23332911 94.67672568 -19.72341158 94.7128405 -29.1875 93.875 C-38.6566791 92.2540571 -46.06273523 88.27202933 -53.1875 81.875 C-59.65493747 75.16039932 -64.20262455 65.72339304 -65.90625 56.56640625 C-67.31177974 43.11626752 -66.69657641 29.34769192 -60.5625 17.0625 C-55.8981572 9.28859534 -50.22150146 3.66914963 -42.1875 -0.5625 C-28.00757429 -7.04218757 -14.22383372 -6.37315961 0 0 Z " transform="translate(145.1875,210.125)" style="fill: #111420;"/><path d="M0 0 C4.74696099 2.83984859 7.35077023 6.79184484 10.0390625 11.51953125 C11.83635645 15.77628007 12.35069216 19.21150026 12.34008789 23.83496094 C12.33997459 25.48621979 12.33997459 25.48621979 12.33985901 27.1708374 C12.33469772 28.35325012 12.32953644 29.53566284 12.32421875 30.75390625 C12.3228038 31.96902893 12.32138885 33.18415161 12.31993103 34.43609619 C12.31433238 38.31809956 12.3017801 42.20004531 12.2890625 46.08203125 C12.28404733 48.71354083 12.27948445 51.34505132 12.27539062 53.9765625 C12.26436338 60.42840763 12.24709964 66.88020967 12.2265625 73.33203125 C5.6265625 73.33203125 -0.9734375 73.33203125 -7.7734375 73.33203125 C-8.1034375 73.00203125 -8.4334375 72.67203125 -8.7734375 72.33203125 C-9.1034375 55.17203125 -9.4334375 38.01203125 -9.7734375 20.33203125 C-11.4234375 18.68203125 -13.0734375 17.03203125 -14.7734375 15.33203125 C-18.7334375 15.33203125 -22.6934375 15.33203125 -26.7734375 15.33203125 C-27.7015625 16.01265625 -28.6296875 16.69328125 -29.5859375 17.39453125 C-30.10800781 17.77738281 -30.63007813 18.16023438 -31.16796875 18.5546875 C-33.52812549 21.16751309 -34.77761476 23.99604039 -35.7734375 27.33203125 C-36.22143327 30.91415605 -36.26139558 34.47097744 -36.28515625 38.078125 C-36.30310745 39.08923843 -36.32105865 40.10035187 -36.33955383 41.1421051 C-36.39345792 44.35120555 -36.42748899 47.56015894 -36.4609375 50.76953125 C-36.4941281 52.95379641 -36.52861936 55.13804223 -36.56445312 57.32226562 C-36.65160623 62.65887302 -36.71184617 67.99482354 -36.7734375 73.33203125 C-43.7034375 73.33203125 -50.6334375 73.33203125 -57.7734375 73.33203125 C-57.7734375 48.58203125 -57.7734375 23.83203125 -57.7734375 -1.66796875 C-50.8434375 -1.66796875 -43.9134375 -1.66796875 -36.7734375 -1.66796875 C-36.4434375 0.64203125 -36.1134375 2.95203125 -35.7734375 5.33203125 C-35.30035156 4.92210937 -34.82726562 4.5121875 -34.33984375 4.08984375 C-24.55181372 -3.88558812 -11.58069133 -5.20212008 0 0 Z " transform="translate(468.7734375,291.66796875)" style="fill: #7253D4;"/></svg>

<?xml version="1.0" encoding="UTF-8"?>
<svg display="block" version="1.1" viewBox="0 0 512 512" xmlns="http://www.w3.org/2000/svg">
<path transform="translate(0)" d="m0 0h512v512h-512v-512z" fill="#111420"/>
<path transform="translate(132.69 162.56)" d="m0 0c1.572 0.013535 1.572 0.013535 3.1758 0.027344 16.325 0.36099 30.886 5.2817 44.305 14.613 14.715 11.61 23.739 26.318 29.832 43.797 6.4574 20.331 6.6075 46.237 0.69336 66.827-4.8024 15.05-12.629 27.882-23.693 39.173-0.66387 0.69996-1.3277 1.3999-2.0117 2.1211-9.1899 8.9798-21.389 14.24-33.849 16.847-16.295 2.8906-32.59 1.9568-48.026-4.1006-8.7433-4.0436-15.349-10.103-22.113-16.867l-1 92h-46v-248h46v18h2c0.22172-0.56074 0.44344-1.1215 0.67188-1.6992 4.8101-8.3329 15.275-13.714 23.613-17.828 8.8181-3.4957 16.923-5.0089 26.402-4.9102z" fill="#7353D5"/>
<path transform="translate(351.5 172.85)" d="m0 0c14.43 7.9162 26.651 18.645 34.877 32.974 4.0466 7.8986 5.625 13.133 5.625 22.172h-48l-6-9c-5.9947-5.8857-12.167-9.004-20.426-10.645-9.7877-1.3516-18.587-0.61577-27.574 3.6445-7.6659 4.6163-13.456 11.004-17.508 18.961-2.4682 5.5994-4.3307 10.879-4.4922 17.039-0.050273 1.0261-0.10055 2.0522-0.15234 3.1094-0.35364 12.731 1.7102 23.872 8.1328 34.973 4.465 6.4514 10.119 10.918 17.195 14.227 8.5785 3.2514 19.548 2.6929 28.426 1.0078 6.349-1.9769 12.507-4.7343 17.398-9.3164 2.7678-3.7956 4.9046-7.8092 7-12h46c0 9.6546-2.4871 18.482-7.457 26.816-3.1202 4.4157-6.8092 8.2869-10.543 12.184-0.81404 0.90879-0.81404 0.90879-1.6445 1.8359-11.63 12.543-27.346 20.398-43.73 24.656-17.366 3.3594-36.414 2.7707-52.938-3.8047-1.9068-0.87233-3.8032-1.7677-5.6875-2.6875-1.3671-0.62842-1.3671-0.62842-2.7617-1.2695-7.9473-3.934-14.043-9.5198-20.238-15.73-0.81727-0.80566-1.6345-1.6113-2.4766-2.4414-11.989-12.504-18.83-28.684-22.002-45.555-3.5765-21.47-1.7802-41.912 7.3425-61.896 7.8206-16.4 18.926-28.915 34.613-38.221 5.9926-3.2089 12.101-5.6772 18.523-7.8867 0.96551-0.3416 1.931-0.6832 2.9258-1.0352 21.589-6.2811 45.928-2.3571 65.572 7.8896z" fill="#7253D5"/>
<path transform="translate(145.19 210.12)" d="m0 0c8.493 4.5805 14.027 11.408 18.523 19.809 3.519 8.371 4.8175 15.864 4.7266 24.941-0.0075732 1.0585-0.015146 2.117-0.022949 3.2075-0.15973 7.5633-0.92519 14.101-4.4146 20.917-0.4473 0.88559-0.89461 1.7712-1.3555 2.6836-4.7361 8.5452-10.636 14.005-18.922 19.055-8.7685 4.0634-18.259 4.0996-27.723 3.2617-9.4692-1.6209-16.875-5.603-24-12-6.4674-6.7146-11.015-16.152-12.719-25.309-1.4055-13.45-0.79033-27.219 5.3438-39.504 4.6643-7.7739 10.341-13.393 18.375-17.625 14.18-6.4797 27.964-5.8107 42.188 0.5625z" fill="#111420"/>
<path transform="translate(468.77 291.67)" d="m0 0c4.747 2.8398 7.3508 6.7918 10.039 11.52 1.7973 4.2567 2.3116 7.692 2.301 12.315-1.133e-4 1.6513-1.133e-4 1.6513-2.2888e-4 3.3359-0.0051613 1.1824-0.010323 2.3648-0.01564 3.5831-0.001415 1.2151-0.0028299 2.4302-0.0042877 3.6822-0.0055986 3.882-0.018151 7.7639-0.030869 11.646-0.0050152 2.6315-0.009578 5.263-0.013672 7.8945-0.011027 6.4518-0.028291 12.904-0.048828 19.355h-20l-1-1-1-52-5-5h-12l-2.8125 2.0625c-0.52207 0.38285-1.0441 0.7657-1.582 1.1602-2.3602 2.6128-3.6096 5.4414-4.6055 8.7773-0.448 3.5821-0.48796 7.1389-0.51172 10.746-0.017951 1.0111-0.035902 2.0222-0.054398 3.064-0.053904 3.2091-0.087935 6.4181-0.12138 9.6274-0.033191 2.1843-0.067682 4.3685-0.10352 6.5527-0.087153 5.3366-0.14739 10.673-0.20898 16.01h-21v-75h21l1 7c0.47309-0.40992 0.94617-0.81984 1.4336-1.2422 9.788-7.9754 22.759-9.292 34.34-4.0898z" fill="#7253D4"/>
</svg>
